X: 18639
T: I Would Have Preferred Thee At First, But Not Now Sir
R: jig
M: 6/8
K: Amixolydian
|:AAA c<ce|efe c<ce|AAA c<ce|f/g/dB B<Be|
AAA c<ce|efe c<cA|dBB g2B|cAA A<Ae:|
|:aga c<ce|A<Ae c<ce|aga c<ce|f/g/dB B<Be|
aga c<ce|A<Ae c<cA|dBB g2B|cAA A<Ae:|

